modules/linearicons/icons/layers.svg

<?xml version="1.0" encoding="utf-8"?>
<!-- Generated by IcoMoon.io -->
<!DOCTYPE svg PUBLIC "-//W3C//DTD SVG 1.1//EN" "http://www.w3.org/Graphics/SVG/1.1/DTD/svg11.dtd">
<svg version="1.1" xmlns="http://www.w3.org/2000/svg" xmlns:xlink="http://www.w3.org/1999/xlink" width="20" height="20" viewBox="0 0 20 20">
<path fill="#000000" d="M10 12c-0.066 0-0.132-0.013-0.194-0.039l-9.5-4c-0.185-0.078-0.306-0.26-0.306-0.461s0.121-0.383 0.306-0.461l9.5-4c0.124-0.052 0.264-0.052 0.388 0l9.5 4c0.185 0.078 0.306 0.26 0.306 0.461s-0.121 0.383-0.306 0.461l-9.5 4c-0.062 0.026-0.128 0.039-0.194 0.039zM1.788 7.5l8.212 3.457 8.212-3.457-8.212-3.457-8.212 3.457z"></path>
<path fill="#000000" d="M10 15c-0.066 0-0.132-0.013-0.194-0.039l-9.5-4c-0.254-0.107-0.374-0.4-0.267-0.655s0.4-0.374 0.655-0.267l9.306 3.918 9.306-3.918c0.254-0.107 0.548 0.012 0.655 0.267s-0.012 0.548-0.267 0.655l-9.5 4c-0.062 0.026-0.128 0.039-0.194 0.039z"></path>
<path fill="#000000" d="M10 18c-0.066 0-0.132-0.013-0.194-0.039l-9.5-4c-0.254-0.107-0.374-0.4-0.267-0.655s0.4-0.374 0.655-0.267l9.306 3.918 9.306-3.918c0.254-0.107 0.548 0.012 0.655 0.267s-0.012 0.548-0.267 0.655l-9.5 4c-0.062 0.026-0.128 0.039-0.194 0.039z"></path>
</svg>

<svg xmlns="http://www.w3.org/2000/svg" width="20" height="20" viewBox="0 0 20 20"><path d="M10 12a.502.502 0 0 1-.194-.039l-9.5-4a.501.501 0 0 1 0-.922l9.5-4a.502.502 0 0 1 .388 0l9.5 4a.501.501 0 0 1 0 .922l-9.5 4A.502.502 0 0 1 10 12zM1.788 7.5L10 10.957 18.212 7.5 10 4.043 1.788 7.5z"/><path d="M10 15a.502.502 0 0 1-.194-.039l-9.5-4a.5.5 0 0 1 .388-.922L10 13.957l9.306-3.918a.5.5 0 1 1 .388.922l-9.5 4A.502.502 0 0 1 10 15z"/><path d="M10 18a.502.502 0 0 1-.194-.039l-9.5-4a.5.5 0 0 1 .388-.922L10 16.957l9.306-3.918a.5.5 0 1 1 .388.922l-9.5 4A.502.502 0 0 1 10 18z"/></svg>
